X:1
T:6-8 Set #1
M:6/8
L:1/8
Q:3/8=56
K:D
T:A Hundred Pipers
|: {/gfg}f2A1 {/g}A3/2B/2{/G}A1|{/gBd}B2d1{/gdc}d2{/gf}g1|{/ag}a2f1 {/gfg}f3/2e/2d1|{/gfg}f2e1 {/g}e3/2d/2e1|!
{/gfg}f2A1 {/g}A3/2B/2{/G}A1|{/gBd}B2 d1{/gdc}d2{/gf}g1|{/ag}a2f1 {/g}e3/2d/2e1|1 {/g}d3{/G}d3 :|2 {/g}d3{/G}d2 ||!
|:{/g}c/4d3/4|{/g}e2{/GdG}e1 {/g}e3/2c/2e1|{/gfg}f2a1 {/g}a3/2g/2f1|{/gef}e2c1 {/gcd}c3/2B/2{/G}A1|{/gcd}c2{/e}B1 {/G}B3/2c/2d1|!
{/g}e2{/GdG}e1 {/g}e3/2c/2e1|{/gfg}f2a1 {/g}a3/2g/2f1|{/gef}e2c1 {/gBd}B3/2A/2B1|{/g}A3{/GAG}A2:|!
T:Bonnie Dundee
|:{/g}c/4d3/4|{/g}e2{/GdG}e1 {/gef}e3/2{/g}c/2e1|a3/2g/2{/a}f1 {/gef}e2d1|{/g}c/2e3/2{/g}A1 {/g}c/2e3/2c1|{/g}B2{/GdGe}B1 {/gBd}B3/2{/g}c/2d1|!
{/g}e2{/GdG}e1 {/gef}e3/2{/g}c/2e1|a3/2g/2{/a}f1{/gef}e2d1|{/g}c/2e3/2{/g}A1 {/g}c/2e3/2c1|{/g}A2{/GdGe}A1{/GAG}A2:|!
|:G1|{/g}A2{/GdGe}A1{/Gdc}d2c1|{/g}B2{/GdGe}B1{/gBd}B3|{/g}B2{/GdGe}B1 {/g}B3/2c/2d1|{/g}c2{/GdGe}c1{/gcd}c2{/e}A1|!
{/gcd}c3/2{/e}B/2{/d}c1 {/Gdc}d3/2{/g}c/2d1|{/g}e2{/GdG}e1 {/gfg}f3/2e/2d1|{/g}c/2e3/2{/g}A1 {/g}c/2e3/2c1|{/g}A2{/GdGe}A1{/GAG}A2:|

